X:1
T: Master Frank Romily
C:William Marshall
R:Reel
Q: 232
K:F
M:4/4
L:1/8
|:cA FA cf cA|df cA G2 G2|cA FA cb ag|fd cA F2 F2|
cA FA cf cA|df cA G2 G2|cA FA cb ag|fd cA F2 F2|
fg ag fd cf|df ca g2 g2|fg ag fd cf|df cA F2 F2|
fg ag fd cf|df ca g2 g2|fg ag bg ec|df cA F2 F2:|
